X:1
T: The Countess of Eglinton
C:
R:Strathspey
Q: 128
K:D
M:4/4
L:1/16
|:E2|DEF2 F4 F3E D3F|A3d A3F EEE2 E3F|DEF2 F4 F3E D3F|A3B d3B AF3 F2E2|
DEF2 F4 F3E D3F|A3d A3F EEE2 E3F|DEF2 F4 F3E D3F|A3B d3B AF3 F2g2|
f3a e3f d3f B3d|AF3 d3B AF3 E3g|f3a e3f d3f B3d|AF3 d3B AF3 F3g|
f3a e3f d3f B3d|AF3 d3B AF3 E3F|DEF2 F4 F3E DF3|A3B d3B AD3 D2:|
